**kern	**silbe	**kern	**silbe	**kern	**silbe	**harmony	**chordsym	**phrase	**timestamp	**leadinstrument
*ICvox	*	*ICvox	*	*ICvox	*	*M4/4	*M4/4	*	*	*
*	*	*	*	*	*	*c#:	*c#:	*c#:	*c#:	*c#:
=1	=1	=1	=1	=1	=1	=1	=1	=1	=1	=1
*c#:	*	*c#:	*	*c#:	*	*	*	*	*	*
*M4/4	*	*M4/4	*	*M4/4	*	*	*	*	*	*
*clefF4	*	*clefF4	*	*clefGv2	*	*	*	*	*	*
1r	.	1r	.	1r	.	1r;	r	.	0	r
=2	=2	=2	=2	=2	=2	=2	=2	=2	=2	=2
*	*	*	*	*	*	*>C_intro	*>C_intro	*>C_intro	*>C_intro	*>C_intro
1r	.	1r	.	1r	.	1N	N	newline	0.418	drums
=3	=3	=3	=3	=3	=3	=3	=3	=3	=3	=3
1r	.	1r	.	1r	.	1N	N	.	.	drums
=4	=4	=4	=4	=4	=4	=4	=4	=4	=4	=4
1r	.	2r	.	1r	.	1C#m	C#:5(b13) (C# G# A)	newline	3.32	synthesizer
.	.	4BB B	Who's	.	.	.	.	.	.	.
.	.	8AA A	wa-	.	.	.	.	.	.	.
.	.	8GG# G#	-tching?	.	.	.	.	.	.	.
=5	=5	=5	=5	=5	=5	=5	=5	=5	=5	=5
1r	.	1r	.	1r	.	1C#m	C#:5(b13) (C# G# A)	.	.	synthesizer
=6	=6	=6	=6	=6	=6	=6	=6	=6	=6	=6
1r	.	4r	.	1r	.	1C#m	C#:5(b13) (C# G# A)	.	.	synthesizer
.	.	8GG# G#	Tell	.	.	.	.	.	.	.
.	.	8AA A	me,	.	.	.	.	.	.	.
.	.	4BB B	who's	.	.	.	.	.	.	.
.	.	8AA A	wa-	.	.	.	.	.	.	.
.	.	8GG# G#	-tching?	.	.	.	.	.	.	.
=7	=7	=7	=7	=7	=7	=7	=7	=7	=7	=7
1r	.	2r	.	1r	.	1C#m	C#:5(b13) (C# G# A)	.	.	synthesizer
.	.	8r	.	.	.	.	.	.	.	.
.	.	8c#	Who's	.	.	.	.	.	.	.
.	.	8B	wa-	.	.	.	.	.	.	.
.	.	8A	-tching	.	.	.	.	.	.	.
=8	=8	=8	=8	=8	=8	=8	=8	=8	=8	=8
1r	.	8A	me?	1r	.	1C#m	C#:5(b13) (C# G# A)	newline	11.106	synthesizer
.	.	8r	.	.	.	.	.	.	.	.
.	.	4r	.	.	.	.	.	.	.	.
.	.	2r	.	.	.	.	.	.	.	.
=9	=9	=9	=9	=9	=9	=9	=9	=9	=9	=9
1r	.	1r	.	1r	.	1C#m	C#:5(b13) (C# G# A)	.	.	synthesizer
=10	=10	=10	=10	=10	=10	=10	=10	=10	=10	=10
1r	.	1r	.	1r	.	1C#m	C#:5(b13) (C# G# A)	.	.	synthesizer
=11	=11	=11	=11	=11	=11	=11	=11	=11	=11	=11
1r	.	1r	.	1r	.	1C#m	C#:5(b13) (C# G# A)	.	.	synthesizer
=12	=12	=12	=12	=12	=12	=12	=12	=12	=12	=12
1r	.	1r	.	1r	.	1C#m	C#:min (C# E G#)	newline	18.866	synthesizer
=13	=13	=13	=13	=13	=13	=13	=13	=13	=13	=13
1r	.	1r	.	1r	.	2AMM	A:maj7 (A C# E G#)	.	.	synthesizer
.	.	.	.	.	.	2BM	B:maj6 (B D# F# G#)	.	.	synthesizer
=14	=14	=14	=14	=14	=14	=14	=14	=14	=14	=14
1r	.	1r	.	1r	.	1C#m	C#:min (C# E G#)	.	.	synthesizer
=15	=15	=15	=15	=15	=15	=15	=15	=15	=15	=15
1r	.	1r	.	1r	.	2AM	A:maj (A C# E)	.	.	synthesizer
.	.	.	.	.	.	2BMm	B:7 (B D# F# A)	.	.	synthesizer
=16	=16	=16	=16	=16	=16	=16	=16	=16	=16	=16
1r	.	1r	.	1r	.	1C#m	C#:min (C# E G#)	newline	26.56	synthesizer
=17	=17	=17	=17	=17	=17	=17	=17	=17	=17	=17
1r	.	1r	.	1r	.	2AMM	A:maj7 (A C# E G#)	.	.	synthesizer
.	.	.	.	.	.	2BM	B:maj6 (B D# F# G#)	.	.	synthesizer
=18	=18	=18	=18	=18	=18	=18	=18	=18	=18	=18
1r	.	1r	.	1r	.	1C#m	C#:min (C# E G#)	.	.	synthesizer
=19	=19	=19	=19	=19	=19	=19	=19	=19	=19	=19
8r	.	1r	.	1r	.	2AM	A:maj (A C# E)	.	.	synthesizer
8f#	I'm	.	.	.	.	.	.	.	.	.
8f#	just	.	.	.	.	.	.	.	.	.
16e	an	.	.	.	.	.	.	.	.	.
[16f#	a-	.	.	.	.	.	.	.	.	.
16f#]	_	.	.	.	.	2BMm	B:7 (B D# F# A)	.	.	synthesizer
8.f#	-verage	.	.	.	.	.	.	.	.	.
4c#	man,	.	.	.	.	.	.	.	.	.
=20	=20	=20	=20	=20	=20	=20	=20	=20	=20	=20
*	*	*	*	*	*	*>A_verse	*>A_verse	*>A_verse	*>A_verse	*>A_verse
4r	.	1r	.	1r	.	1C#m	C#:min (C# E G#)	newline	34.308	voice
8c#	with	.	.	.	.	.	.	.	.	.
16B	an	.	.	.	.	.	.	.	.	.
[16F#	a	.	.	.	.	.	.	.	.	.
16F#]	_	.	.	.	.	.	.	.	.	.
8.F#	verage	.	.	.	.	.	.	.	.	.
4E	life.	.	.	.	.	.	.	.	.	.
=21	=21	=21	=21	=21	=21	=21	=21	=21	=21	=21
8r	.	1r	.	1r	.	1AM	A:maj (A C# E)	.	.	voice
8B	I	.	.	.	.	.	.	.	.	.
8B	work	.	.	.	.	.	.	.	.	.
8B	from	.	.	.	.	.	.	.	.	.
8f#	nine	.	.	.	.	.	.	.	.	.
16f#	to	.	.	.	.	.	.	.	.	.
[16B	five,	.	.	.	.	.	.	.	.	.
4B]	_	.	.	.	.	.	.	.	.	.
=22	=22	=22	=22	=22	=22	=22	=22	=22	=22	=22
8r	.	1r	.	1r	.	1C#m	C#:min (C# E G#)	.	.	voice
8d#	hey,	.	.	.	.	.	.	.	.	.
8c#	hell,	.	.	.	.	.	.	.	.	.
8d#	I	.	.	.	.	.	.	.	.	.
8B	pay	.	.	.	.	.	.	.	.	.
16A	the	.	.	.	.	.	.	.	.	.
[16A	price	.	.	.	.	.	.	.	.	.
8A]	_	.	.	.	.	.	.	.	.	.
8r	.	.	.	.	.	.	.	.	.	.
=23	=23	=23	=23	=23	=23	=23	=23	=23	=23	=23
8r	.	1r	.	1r	.	2AM	A:maj (A C# E)	.	.	voice
16f#	All	.	.	.	.	.	.	.	.	.
16f#	I	.	.	.	.	.	.	.	.	.
16f#	want	.	.	.	.	.	.	.	.	.
16f#	is	.	.	.	.	.	.	.	.	.
16f#	to	.	.	.	.	.	.	.	.	.
16f#	be	.	.	.	.	.	.	.	.	.
8f#	left	.	.	.	.	2BM	B:maj (B D# F#)	.	.	voice
16f#	a	.	.	.	.	.	.	.	.	.
16g	lone!	.	.	.	.	.	.	.	.	.
4c#	_	.	.	.	.	.	.	.	.	.
=24	=24	=24	=24	=24	=24	=24	=24	=24	=24	=24
4r	.	1r	.	1r	.	1C#m	C#:min (C# E G#)	newline	42.009	voice
8c#	In	.	.	.	.	.	.	.	.	.
8B	my	.	.	.	.	.	.	.	.	.
8G#	a-	.	.	.	.	.	.	.	.	.
8F#	-verage	.	.	.	.	.	.	.	.	.
4F#	home.	.	.	.	.	.	.	.	.	.
=25	=25	=25	=25	=25	=25	=25	=25	=25	=25	=25
8r	.	1r	.	1r	.	1AM	A:maj (A C# E)	.	.	voice
8e	But	.	.	.	.	.	.	.	.	.
8f#	why	.	.	.	.	.	.	.	.	.
16e	do	.	.	.	.	.	.	.	.	.
16e	I	.	.	.	.	.	.	.	.	.
8a	al-	.	.	.	.	.	.	.	.	.
8a	-ways	.	.	.	.	.	.	.	.	.
4c#	feel...	.	.	.	.	.	.	.	.	.
=26	=26	=26	=26	=26	=26	=26	=26	=26	=26	=26
8r	.	1r	.	1r	.	1C#m	C#:min (C# E G#)	.	.	voice
16e	like	.	.	.	.	.	.	.	.	.
16e	I'm	.	.	.	.	.	.	.	.	.
8e	in	.	.	.	.	.	.	.	.	.
8e	the	.	.	.	.	.	.	.	.	.
8a	Twi-	.	.	.	.	.	.	.	.	.
8g#	-light	.	.	.	.	.	.	.	.	.
8f#	Zone	.	.	.	.	.	.	.	.	.
8e	and...	.	.	.	.	.	.	.	.	.
=27	=27	=27	=27	=27	=27	=27	=27	=27	=27	=27
8r	.	1r	.	1r	.	2AM	A:maj (A C# E)	.	.	voice
8c#	I	.	.	.	.	.	.	.	.	.
8e	al-	.	.	.	.	.	.	.	.	.
8e	-ways	.	.	.	.	.	.	.	.	.
4f#	feel	.	.	.	.	2BM	B:maj (B D# F#)	.	.	voice
4c#	like	.	.	.	.	.	.	.	.	.
=28	=28	=28	=28	=28	=28	=28	=28	=28	=28	=28
*	*	*	*	*	*	*>B_chorus	*>B_chorus	*>B_chorus	*>B_chorus	*>B_chorus
8r	.	1r	.	1r	.	1C#m	C#:min (C# E G#)	newline	49.789	voice
8c#	some-	.	.	.	.	.	.	.	.	.
8e	-bo-	.	.	.	.	.	.	.	.	.
8e	-dy's	.	.	.	.	.	.	.	.	.
4b	wa-	.	.	.	.	.	.	.	.	.
8a	-tching	.	.	.	.	.	.	.	.	.
8a	me!	.	.	.	.	.	.	.	.	.
=29	=29	=29	=29	=29	=29	=29	=29	=29	=29	=29
4.g#	_	1r	.	1r	.	2AM	A:maj (A C# E)	.	.	voice
8r	.	.	.	.	.	.	.	.	.	.
8r	.	.	.	.	.	2BM	B:maj (B D# F#)	.	.	voice
16g	And	.	.	.	.	.	.	.	.	.
16f#	I	.	.	.	.	.	.	.	.	.
8f#	have	.	.	.	.	.	.	.	.	.
8f#	no	.	.	.	.	.	.	.	.	.
=30	=30	=30	=30	=30	=30	=30	=30	=30	=30	=30
8f#	pri-	1r	.	1r	.	1C#m	C#:min (C# E G#)	.	.	voice
8c#	-va-	.	.	.	.	.	.	.	.	.
4c#	-cy.	.	.	.	.	.	.	.	.	.
8r	.	.	.	.	.	.	.	.	.	.
8c#	Oh!	.	.	.	.	.	.	.	.	.
8e	_	.	.	.	.	.	.	.	.	.
8c#	_	.	.	.	.	.	.	.	.	.
=31	=31	=31	=31	=31	=31	=31	=31	=31	=31	=31
8r	.	1r	.	1r	.	2AM	A:maj (A C# E)	.	.	voice
8c#	I	.	.	.	.	.	.	.	.	.
8e	al-	.	.	.	.	.	.	.	.	.
8e	-ways	.	.	.	.	.	.	.	.	.
4f#	feel	.	.	.	.	2BM	B:maj (B D# F#)	.	.	voice
4c#	like,	.	.	.	.	.	.	.	.	.
=32	=32	=32	=32	=32	=32	=32	=32	=32	=32	=32
8r	.	1r	.	1r	.	1C#m	C#:min (C# E G#)	newline	57.531	voice
8c#	some-	.	.	.	.	.	.	.	.	.
8e	-bo-	.	.	.	.	.	.	.	.	.
8e	-dy's	.	.	.	.	.	.	.	.	.
4b	wa-	.	.	.	.	.	.	.	.	.
8a	-tching	.	.	.	.	.	.	.	.	.
8a	me!	.	.	.	.	.	.	.	.	.
=33	=33	=33	=33	=33	=33	=33	=33	=33	=33	=33
4.g#	_	1r	.	1r	.	2AM	A:maj (A C# E)	.	.	voice
8r	.	.	.	.	.	.	.	.	.	.
8r	.	.	.	.	.	2BM	B:maj (B D# F#)	.	.	voice
16g	Tell	.	.	.	.	.	.	.	.	.
16f#	me,	.	.	.	.	.	.	.	.	.
8f#	is	.	.	.	.	.	.	.	.	.
8f#	it	.	.	.	.	.	.	.	.	.
=34	=34	=34	=34	=34	=34	=34	=34	=34	=34	=34
8f#	just	1r	.	1r	.	1C#m	C#:min (C# E G#)	.	.	voice
8c#	a	.	.	.	.	.	.	.	.	.
4c#	dream?	.	.	.	.	.	.	.	.	.
2r	.	.	.	.	.	.	.	.	.	.
=35	=35	=35	=35	=35	=35	=35	=35	=35	=35	=35
8r	.	1r	.	1r	.	2AM	A:maj (A C# E)	.	.	voice
16e	When	.	.	.	.	.	.	.	.	.
[16a	I	.	.	.	.	.	.	.	.	.
8a]	_	.	.	.	.	.	.	.	.	.
8d#	come	.	.	.	.	.	.	.	.	.
8c#	home	.	.	.	.	2BM	B:maj (B D# F#)	.	.	voice
8B	at	.	.	.	.	.	.	.	.	.
[4B	night	.	.	.	.	.	.	.	.	.
=36	=36	=36	=36	=36	=36	=36	=36	=36	=36	=36
*	*	*	*	*	*	*>A_verse	*>A_verse	*>A_verse	*>A_verse	*>A_verse
4B]	...	1r	.	1r	.	1C#m	C#:min (C# E G#)	newline	65.215	voice
4r	.	.	.	.	.	.	.	.	.	.
2r	.	.	.	.	.	.	.	.	.	.
=37	=37	=37	=37	=37	=37	=37	=37	=37	=37	=37
8r	.	1r	.	1r	.	1AM	A:maj (A C# E)	.	.	voice
8B	I'd	.	.	.	.	.	.	.	.	.
8B	locked	.	.	.	.	.	.	.	.	.
16B	the	.	.	.	.	.	.	.	.	.
[16B	door	.	.	.	.	.	.	.	.	.
8B]	_	.	.	.	.	.	.	.	.	.
[8A	real	.	.	.	.	.	.	.	.	.
8A]	_	.	.	.	.	.	.	.	.	.
[8E	tight	.	.	.	.	.	.	.	.	.
=38	=38	=38	=38	=38	=38	=38	=38	=38	=38	=38
4E]	...	1r	.	1r	.	1C#m	C#:min (C# E G#)	.	.	voice
4r	.	.	.	.	.	.	.	.	.	.
2r	.	.	.	.	.	.	.	.	.	.
=39	=39	=39	=39	=39	=39	=39	=39	=39	=39	=39
8g#	Peo-	1r	.	1r	.	2AM	A:maj (A C# E)	.	.	voice
8g#	-ple	.	.	.	.	.	.	.	.	.
8B	call	.	.	.	.	.	.	.	.	.
8B	me	.	.	.	.	.	.	.	.	.
8f#	on	.	.	.	.	2BM	B:maj (B D# F#)	.	.	voice
8f#	my	.	.	.	.	.	.	.	.	.
8B	phone,	.	.	.	.	.	.	.	.	.
8B	I'm	.	.	.	.	.	.	.	.	.
=40	=40	=40	=40	=40	=40	=40	=40	=40	=40	=40
8e	trying	1r	.	1r	.	1C#m	C#:min (C# E G#)	newline	72.964	voice
8e	to	.	.	.	.	.	.	.	.	.
8F#	a-	.	.	.	.	.	.	.	.	.
[8B	-void	.	.	.	.	.	.	.	.	.
4B]	...	.	.	.	.	.	.	.	.	.
16r	.	.	.	.	.	.	.	.	.	.
16f#	Well,	.	.	.	.	.	.	.	.	.
16f#	can	.	.	.	.	.	.	.	.	.
16f#	the	.	.	.	.	.	.	.	.	.
=41	=41	=41	=41	=41	=41	=41	=41	=41	=41	=41
16a	peo-	1r	.	1r	.	2AM	A:maj (A C# E)	.	.	voice
16a	-ple	.	.	.	.	.	.	.	.	.
8a	on	.	.	.	.	.	.	.	.	.
8f#	T-	.	.	.	.	.	.	.	.	.
8f#	-V	.	.	.	.	.	.	.	.	.
8B	see	.	.	.	.	2BM	B:maj (B D# F#)	.	.	voice
8B	me	.	.	.	.	.	.	.	.	.
16A	or	.	.	.	.	.	.	.	.	.
16A	am	.	.	.	.	.	.	.	.	.
[8c#	I	.	.	.	.	.	.	.	.	.
=42	=42	=42	=42	=42	=42	=42	=42	=42	=42	=42
8c#]	_	1r	.	1r	.	1C#m	C#:min (C# E G#)	.	.	voice
8c#	just	.	.	.	.	.	.	.	.	.
16e	pa-	.	.	.	.	.	.	.	.	.
16B	-ra-	.	.	.	.	.	.	.	.	.
[8A	-noid?	.	.	.	.	.	.	.	.	.
4A]	_	.	.	.	.	.	.	.	.	.
4r	.	.	.	.	.	.	.	.	.	.
=43	=43	=43	=43	=43	=43	=43	=43	=43	=43	=43
8r	.	1r	.	1r	.	2AM	A:maj (A C# E)	.	.	voice
16g#	When	.	.	.	.	.	.	.	.	.
16g#	I'm	.	.	.	.	.	.	.	.	.
16g#	in	.	.	.	.	.	.	.	.	.
8g#	the	.	.	.	.	.	.	.	.	.
[16g#	sho	.	.	.	.	.	.	.	.	.
16g#]	_	.	.	.	.	2BM	B:maj (B D# F#)	.	.	voice
8.c#	wer,	.	.	.	.	.	.	.	.	.
8r	.	.	.	.	.	.	.	.	.	.
16g#	I'm	.	.	.	.	.	.	.	.	.
16g#	a-	.	.	.	.	.	.	.	.	.
=44	=44	=44	=44	=44	=44	=44	=44	=44	=44	=44
*	*	*	*	*	*	*>A_verse	*>A_verse	*>A_verse	*>A_verse	*>A_verse
8.g#	-fraid	1r	.	1r	.	1C#m	C#:min (C# E G#)	newline	80.702	voice
16e	to	.	.	.	.	.	.	.	.	.
8d#	wash	.	.	.	.	.	.	.	.	.
8c#	my	.	.	.	.	.	.	.	.	.
4c#	hair,	.	.	.	.	.	.	.	.	.
4r	.	.	.	.	.	.	.	.	.	.
=45	=45	=45	=45	=45	=45	=45	=45	=45	=45	=45
16r	.	1r	.	1r	.	2AM	A:maj (A C# E)	.	.	voice
16e	'cause	.	.	.	.	.	.	.	.	.
16e	I	.	.	.	.	.	.	.	.	.
16e	might	.	.	.	.	.	.	.	.	.
16e	o-	.	.	.	.	.	.	.	.	.
16e	-pen	.	.	.	.	.	.	.	.	.
16e	my	.	.	.	.	.	.	.	.	.
[16f#	eyes,	.	.	.	.	.	.	.	.	.
8f#]	_	.	.	.	.	2BM	B:maj (B D# F#)	.	.	voice
8e	and	.	.	.	.	.	.	.	.	.
8f#	find	.	.	.	.	.	.	.	.	.
8g#	some	.	.	.	.	.	.	.	.	.
=46	=46	=46	=46	=46	=46	=46	=46	=46	=46	=46
4g#	one	1r	.	1r	.	1C#m	C#:min (C# E G#)	.	.	voice
8a	stan-	.	.	.	.	.	.	.	.	.
8e	-ding	.	.	.	.	.	.	.	.	.
4c#	there!	.	.	.	.	.	.	.	.	.
4r	.	.	.	.	.	.	.	.	.	.
=47	=47	=47	=47	=47	=47	=47	=47	=47	=47	=47
8r	.	1r	.	1r	.	2AM	A:maj (A C# E)	.	.	voice
16g#	Peo-	.	.	.	.	.	.	.	.	.
16g#	-ple	.	.	.	.	.	.	.	.	.
16g#	say	.	.	.	.	.	.	.	.	.
8g#	I'm	.	.	.	.	.	.	.	.	.
[16g#	cra	.	.	.	.	.	.	.	.	.
16g#]	_	.	.	.	.	2BM	B:maj (B D# F#)	.	.	voice
8.e	zy,	.	.	.	.	.	.	.	.	.
4r	.	.	.	.	.	.	.	.	.	.
=48	=48	=48	=48	=48	=48	=48	=48	=48	=48	=48
8r	.	1r	.	1r	.	1C#m	C#:min (C# E G#)	newline	88.423	voice
16g#	just	.	.	.	.	.	.	.	.	.
16g#	a	.	.	.	.	.	.	.	.	.
16g#	lit-	.	.	.	.	.	.	.	.	.
8e	-tle	.	.	.	.	.	.	.	.	.
[16e	touched	.	.	.	.	.	.	.	.	.
8e]	_	.	.	.	.	.	.	.	.	.
8r	.	.	.	.	.	.	.	.	.	.
8r	.	.	.	.	.	.	.	.	.	.
8f#	but	.	.	.	.	.	.	.	.	.
=49	=49	=49	=49	=49	=49	=49	=49	=49	=49	=49
8g#	may-	1r	.	1r	.	2AM	A:maj (A C# E)	.	.	voice
8ff#	-be	.	.	.	.	.	.	.	.	.
8f#	sho-	.	.	.	.	.	.	.	.	.
16f#	-wers	.	.	.	.	.	.	.	.	.
16e	re-	.	.	.	.	.	.	.	.	.
8c#	-mind	.	.	.	.	2BM	B:maj (B D# F#)	.	.	voice
8B	me	.	.	.	.	.	.	.	.	.
8r	.	.	.	.	.	.	.	.	.	.
8e	of	.	.	.	.	.	.	.	.	.
=50	=50	=50	=50	=50	=50	=50	=50	=50	=50	=50
8d#	Psy-	1r	.	1r	.	1C#m	C#:min (C# E G#)	.	.	voice
8B	-cho	.	.	.	.	.	.	.	.	.
8G#	too	.	.	.	.	.	.	.	.	.
8F#	much,	.	.	.	.	.	.	.	.	.
8r	.	.	.	.	.	.	.	.	.	.
8gg#	that's	.	.	.	.	.	.	.	.	.
4B	why...	.	.	.	.	.	.	.	.	.
=51	=51	=51	=51	=51	=51	=51	=51	=51	=51	=51
8r	.	1r	.	1r	.	2AM	A:maj (A C# E)	.	.	voice
8c#	I	.	.	.	.	.	.	.	.	.
8e	al-	.	.	.	.	.	.	.	.	.
8e	-ways	.	.	.	.	.	.	.	.	.
4f#	feel	.	.	.	.	2BM	B:maj (B D# F#)	.	.	voice
4c#	like	.	.	.	.	.	.	.	.	.
=52	=52	=52	=52	=52	=52	=52	=52	=52	=52	=52
*	*	*	*	*	*	*>B_chorus	*>B_chorus	*>B_chorus	*>B_chorus	*>B_chorus
8r	.	1r	.	1r	.	1C#m	C#:min (C# E G#)	newline	96.195	voice
8c#	some-	.	.	.	.	.	.	.	.	.
8e	-bo-	.	.	.	.	.	.	.	.	.
8e	-dy's	.	.	.	.	.	.	.	.	.
4b	wa-	.	.	.	.	.	.	.	.	.
8a	-tching	.	.	.	.	.	.	.	.	.
8a	me!	.	.	.	.	.	.	.	.	.
=53	=53	=53	=53	=53	=53	=53	=53	=53	=53	=53
4.g#	_	1r	.	1r	.	2AM	A:maj (A C# E)	.	.	voice
8r	.	.	.	.	.	.	.	.	.	.
8r	.	.	.	.	.	2BM	B:maj (B D# F#)	.	.	voice
16g	And	.	.	.	.	.	.	.	.	.
16f#	I	.	.	.	.	.	.	.	.	.
8f#	have	.	.	.	.	.	.	.	.	.
8f#	no	.	.	.	.	.	.	.	.	.
=54	=54	=54	=54	=54	=54	=54	=54	=54	=54	=54
8f#	pri-	1r	.	1r	.	1C#m	C#:min (C# E G#)	.	.	voice
8c#	-va-	.	.	.	.	.	.	.	.	.
4c#	-cy,	.	.	.	.	.	.	.	.	.
8r	.	.	.	.	.	.	.	.	.	.
8c#	whoa-	.	.	.	.	.	.	.	.	.
8e	-oh-	.	.	.	.	.	.	.	.	.
8c#	-oh!	.	.	.	.	.	.	.	.	.
=55	=55	=55	=55	=55	=55	=55	=55	=55	=55	=55
8r	.	1r	.	1r	.	2AM	A:maj (A C# E)	.	.	voice
8c#	I	.	.	.	.	.	.	.	.	.
8e	al-	.	.	.	.	.	.	.	.	.
8e	-ways	.	.	.	.	.	.	.	.	.
4f#	feel	.	.	.	.	2BM	B:maj (B D# F#)	.	.	voice
4c#	like,	.	.	.	.	.	.	.	.	.
=56	=56	=56	=56	=56	=56	=56	=56	=56	=56	=56
8r	.	1r	.	1r	.	1C#m	C#:min (C# E G#)	newline	103.904	voice
8c#	some-	.	.	.	.	.	.	.	.	.
8e	-bo-	.	.	.	.	.	.	.	.	.
8e	-dy's	.	.	.	.	.	.	.	.	.
4b	wa-	.	.	.	.	.	.	.	.	.
8a	-tching	.	.	.	.	.	.	.	.	.
8a	me!	.	.	.	.	.	.	.	.	.
=57	=57	=57	=57	=57	=57	=57	=57	=57	=57	=57
4.g#	_	1r	.	1r	.	2AM	A:maj (A C# E)	.	.	voice
8r	.	.	.	.	.	.	.	.	.	.
8r	.	.	.	.	.	2BM	B:maj (B D# F#)	.	.	voice
8g	Who's	.	.	.	.	.	.	.	.	.
8f#	pla-	.	.	.	.	.	.	.	.	.
8f#	-ying	.	.	.	.	.	.	.	.	.
=58	=58	=58	=58	=58	=58	=58	=58	=58	=58	=58
8f#	tricks	1r	.	1r	.	1C#m	C#:min (C# E G#)	.	.	voice
8c#	on	.	.	.	.	.	.	.	.	.
4c#	me?	.	.	.	.	.	.	.	.	.
2r	.	.	.	.	.	.	.	.	.	.
=59	=59	=59	=59	=59	=59	=59	=59	=59	=59	=59
1r	.	1r	.	1r	.	2AM	A:maj (A C# E)	.	.	voice
.	.	.	.	.	.	2BM	B:maj (B D# F#)	.	.	voice
=60	=60	=60	=60	=60	=60	=60	=60	=60	=60	=60
*	*	*	*	*	*	*>D_solo	*>D_solo	*>D_solo	*>D_solo	*>D_solo
1r	.	1r	.	1r	.	1C#m	C#:min (C# E G#)	newline	111.662	synthesizer
=61	=61	=61	=61	=61	=61	=61	=61	=61	=61	=61
1r	.	1r	.	1r	.	2AM	A:maj (A C# E)	.	.	synthesizer
.	.	.	.	.	.	2BM	B:maj (B D# F#)	.	.	synthesizer
=62	=62	=62	=62	=62	=62	=62	=62	=62	=62	=62
1r	.	1r	.	1r	.	1C#m	C#:min (C# E G#)	.	.	synthesizer
=63	=63	=63	=63	=63	=63	=63	=63	=63	=63	=63
1r	.	1r	.	1r	.	2AM	A:maj (A C# E)	.	.	synthesizer
.	.	.	.	.	.	2BM	B:maj (B D# F#)	.	.	synthesizer
=64	=64	=64	=64	=64	=64	=64	=64	=64	=64	=64
1r	.	1r	.	1r	.	1C#m	C#:min (C# E G#)	newline	119.364	synthesizer
=65	=65	=65	=65	=65	=65	=65	=65	=65	=65	=65
1r	.	1r	.	1r	.	2AM	A:maj (A C# E)	.	.	synthesizer
.	.	.	.	.	.	2BM	B:maj (B D# F#)	.	.	synthesizer
=66	=66	=66	=66	=66	=66	=66	=66	=66	=66	=66
1r	.	1r	.	1r	.	1C#m	C#:min (C# E G#)	.	.	synthesizer
=67	=67	=67	=67	=67	=67	=67	=67	=67	=67	=67
1r	.	1r	.	1r	.	2AM	A:maj (A C# E)	.	.	synthesizer
.	.	.	.	.	.	2BM	B:maj (B D# F#)	.	.	synthesizer
=68	=68	=68	=68	=68	=68	=68	=68	=68	=68	=68
1r	.	1r	.	1r	.	1C#m	C#:min(b13) (C# E G# A)	newline	127.111	synthesizer
=69	=69	=69	=69	=69	=69	=69	=69	=69	=69	=69
1r	.	1r	.	1r	.	1C#m	C#:min(b13) (C# E G# A)	.	.	synthesizer
=70	=70	=70	=70	=70	=70	=70	=70	=70	=70	=70
1r	.	1r	.	1r	.	1C#m	C#:min(b13) (C# E G# A)	.	.	synthesizer
=71	=71	=71	=71	=71	=71	=71	=71	=71	=71	=71
1r	.	1r	.	1r	.	1C#m	C#:min(b13) (C# E G# A)	.	.	synthesizer
=72	=72	=72	=72	=72	=72	=72	=72	=72	=72	=72
1r	.	1r	.	1r	.	1C#m	C#:min(b13) (C# E G# A)	newline	134.838	synthesizer
=73	=73	=73	=73	=73	=73	=73	=73	=73	=73	=73
1r	.	1r	.	1r	.	1C#m	C#:min(b13) (C# E G# A)	.	.	synthesizer
=74	=74	=74	=74	=74	=74	=74	=74	=74	=74	=74
2r	.	1r	.	1r	.	1C#m	C#:min(b13) (C# E G# A)	.	.	synthesizer
8r	.	.	.	.	.	.	.	.	.	.
8g#	Who's	.	.	.	.	.	.	.	.	.
8f#	wa-	.	.	.	.	.	.	.	.	.
8e	-tching	.	.	.	.	.	.	.	.	.
=75	=75	=75	=75	=75	=75	=75	=75	=75	=75	=75
*	*	*clefG2	*	*clefF4	*	*	*	*	*	*
8e	me?	1r	.	1r	.	2AM	A:maj (A C# E)	.	.	synthesizer
8r	.	.	.	.	.	.	.	.	.	.
16r	.	.	.	.	.	.	.	.	.	.
16B	I	.	.	.	.	.	.	.	.	.
8a	don't	.	.	.	.	.	.	.	.	.
16a	know	.	.	.	.	2BM	B:maj (B D# F#)	.	.	synthesizer
16e	a-	.	.	.	.	.	.	.	.	.
[8B	-ny-	.	.	.	.	.	.	.	.	.
8.B]	-more!	.	.	.	.	.	.	.	.	.
16r	.	.	.	.	.	.	.	.	.	.
=76	=76	=76	=76	=76	=76	=76	=76	=76	=76	=76
*	*	*	*	*	*	*>E_bridge	*>E_bridge	*>E_bridge	*>E_bridge	*>E_bridge
12r	.	2r	.	2r	.	1C#m	C#:min (C# E G#)	newline	142.631	voice
12e	Are	.	.	.	.	.	.	.	.	.
12f#	the	.	.	.	.	.	.	.	.	.
4g#	neigh-	.	.	.	.	.	.	.	.	.
12f#	-bors	4B b	Who's	4BBB BB	Who's	.	.	.	.	.
12e	wa-	.	.	.	.	.	.	.	.	.
12B	-tching	.	.	.	.	.	.	.	.	.
8B	me?	8A a	wa-	8AAA AA	wa-	.	.	.	.	.
8r	.	8G# g#	-tching?	8GGG# GG#	-tching?	.	.	.	.	.
=77	=77	=77	=77	=77	=77	=77	=77	=77	=77	=77
2r	.	1r	.	1r	.	1C#m	C#:min(11) (C# E G# F#)	.	.	voice
12r	.	.	.	.	.	.	.	.	.	.
12f#	Well,	.	.	.	.	.	.	.	.	.
12g#	is	.	.	.	.	.	.	.	.	.
12a	the	.	.	.	.	.	.	.	.	.
6b	mail-	.	.	.	.	.	.	.	.	.
=78	=78	=78	=78	=78	=78	=78	=78	=78	=78	=78
4f#	-man	4r	.	4r	.	1C#m	C#:min (C# E G#)	.	.	voice
12c#	wa-	8G# g#	Tell	8GGG# GG#	Tell	.	.	.	.	.
12B	-tching	.	.	.	.	.	.	.	.	.
.	.	8A a	me,	8AAA AA	me,	.	.	.	.	.
12G#	me?	.	.	.	.	.	.	.	.	.
2r	.	4B b	who's	4BBB BB	who's	.	.	.	.	.
.	.	8A a	wa-	8AAA AA	wa-	.	.	.	.	.
.	.	8G# g#	-tching?	8GGG# GG#	-tching?	.	.	.	.	.
=79	=79	=79	=79	=79	=79	=79	=79	=79	=79	=79
16r	.	1r	.	1r	.	1AM	A:maj (A C# E)	.	.	voice
16g#	And	.	.	.	.	.	.	.	.	.
16g#	I	.	.	.	.	.	.	.	.	.
[16g#	don't	.	.	.	.	.	.	.	.	.
8g#]	_	.	.	.	.	.	.	.	.	.
8g#	feel	.	.	.	.	.	.	.	.	.
8g#	safe	.	.	.	.	.	.	.	.	.
16e	a-	.	.	.	.	.	.	.	.	.
16e	-ny-	.	.	.	.	.	.	.	.	.
4B	-more!	.	.	.	.	.	.	.	.	.
=80	=80	=80	=80	=80	=80	=80	=80	=80	=80	=80
8r	.	1r	.	1r	.	1C#m	C#:min (C# E G#)	newline	150.332	voice
8g	Oh,	.	.	.	.	.	.	.	.	.
16f#	what	.	.	.	.	.	.	.	.	.
8f#	a	.	.	.	.	.	.	.	.	.
[16f#	mess!	.	.	.	.	.	.	.	.	.
4f#]	_	.	.	.	.	.	.	.	.	.
8r	.	.	.	.	.	.	.	.	.	.
8g#	I	.	.	.	.	.	.	.	.	.
=81	=81	=81	=81	=81	=81	=81	=81	=81	=81	=81
16a	won-	1r	.	1r	.	1AMM	A:maj7 (A C# E G#)	.	.	voice
16a	-der	.	.	.	.	.	.	.	.	.
8e	who's	.	.	.	.	.	.	.	.	.
12f#	wa-	.	.	.	.	.	.	.	.	.
12f#	-tching	.	.	.	.	.	.	.	.	.
12g	me	.	.	.	.	.	.	.	.	.
4g	now?	.	.	.	.	.	.	.	.	.
4a	WHO!	.	.	.	.	.	.	.	.	.
=82	=82	=82	=82	=82	=82	=82	=82	=82	=82	=82
8r	.	1r	.	1r	.	1C#m	C#:min (C# E G#)	.	.	voice
8f#	The	.	.	.	.	.	.	.	.	.
16f#	I-	.	.	.	.	.	.	.	.	.
8f#	-R-	.	.	.	.	.	.	.	.	.
16ee	-S	.	.	.	.	.	.	.	.	.
8ff#	??	.	.	.	.	.	.	.	.	.
8r	.	.	.	.	.	.	.	.	.	.
4r	.	.	.	.	.	.	.	.	.	.
=83	=83	=83	=83	=83	=83	=83	=83	=83	=83	=83
8r	.	1r	.	1r	.	2AM	A:maj (A C# E)	.	.	voice
8c#	I	.	.	.	.	.	.	.	.	.
8e	al-	.	.	.	.	.	.	.	.	.
8e	-ways	.	.	.	.	.	.	.	.	.
4f#	feel	.	.	.	.	2BM	B:maj (B D# F#)	.	.	voice
4c#	like	.	.	.	.	.	.	.	.	.
=84	=84	=84	=84	=84	=84	=84	=84	=84	=84	=84
*	*	*	*	*	*	*>B_chorus	*>B_chorus	*>B_chorus	*>B_chorus	*>B_chorus
8r	.	1r	.	1r	.	1C#m	C#:min (C# E G#)	newline	158.076	voice
8c#	some-	.	.	.	.	.	.	.	.	.
8e	-bo-	.	.	.	.	.	.	.	.	.
8e	-dy's	.	.	.	.	.	.	.	.	.
4b	wa-	.	.	.	.	.	.	.	.	.
8a	-tching	.	.	.	.	.	.	.	.	.
8a	me!	.	.	.	.	.	.	.	.	.
=85	=85	=85	=85	=85	=85	=85	=85	=85	=85	=85
4.g#	_	1r	.	1r	.	2AM	A:maj (A C# E)	.	.	voice
8r	.	.	.	.	.	.	.	.	.	.
8r	.	.	.	.	.	2BM	B:maj (B D# F#)	.	.	voice
16g	And	.	.	.	.	.	.	.	.	.
16f#	I	.	.	.	.	.	.	.	.	.
8f#	have	.	.	.	.	.	.	.	.	.
8f#	no	.	.	.	.	.	.	.	.	.
=86	=86	=86	=86	=86	=86	=86	=86	=86	=86	=86
8f#	pri-	1r	.	1r	.	1C#m	C#:min (C# E G#)	.	.	voice
8c#	-va-	.	.	.	.	.	.	.	.	.
4c#	-cy,	.	.	.	.	.	.	.	.	.
8r	.	.	.	.	.	.	.	.	.	.
8c#	whoa-	.	.	.	.	.	.	.	.	.
8e	-oh-	.	.	.	.	.	.	.	.	.
8c#	-oh!	.	.	.	.	.	.	.	.	.
=87	=87	=87	=87	=87	=87	=87	=87	=87	=87	=87
8r	.	1r	.	1r	.	2AM	A:maj (A C# E)	.	.	voice
8c#	I	.	.	.	.	.	.	.	.	.
8e	al-	.	.	.	.	.	.	.	.	.
8e	-ways	.	.	.	.	.	.	.	.	.
4f#	feel	.	.	.	.	2BM	B:maj (B D# F#)	.	.	voice
4c#	like	.	.	.	.	.	.	.	.	.
=88	=88	=88	=88	=88	=88	=88	=88	=88	=88	=88
8r	.	1r	.	1r	.	1C#m	C#:min (C# E G#)	newline	165.822	voice
8c#	some-	.	.	.	.	.	.	.	.	.
8e	-bo-	.	.	.	.	.	.	.	.	.
8e	-dy's	.	.	.	.	.	.	.	.	.
4b	wa-	.	.	.	.	.	.	.	.	.
8a	-tching	.	.	.	.	.	.	.	.	.
8a	me!	.	.	.	.	.	.	.	.	.
=89	=89	=89	=89	=89	=89	=89	=89	=89	=89	=89
4.g#	_	1r	.	1r	.	2AM	A:maj (A C# E)	.	.	voice
8r	.	.	.	.	.	.	.	.	.	.
8r	.	.	.	.	.	2BM	B:maj (B D# F#)	.	.	voice
16g	Tell	.	.	.	.	.	.	.	.	.
16g	me,	.	.	.	.	.	.	.	.	.
8f#	is	.	.	.	.	.	.	.	.	.
8f#	it	.	.	.	.	.	.	.	.	.
=90	=90	=90	=90	=90	=90	=90	=90	=90	=90	=90
8f#	just	1r	.	1r	.	1C#m	C#:min (C# E G#)	.	.	voice
8c#	a	.	.	.	.	.	.	.	.	.
4c#	dream?	.	.	.	.	.	.	.	.	.
2r	.	.	.	.	.	.	.	.	.	.
=91	=91	=91	=91	=91	=91	=91	=91	=91	=91	=91
8r	.	1r	.	1r	.	2AM	A:maj (A C# E)	.	.	voice
8c#	I	.	.	.	.	.	.	.	.	.
8e	al-	.	.	.	.	.	.	.	.	.
8e	-ways	.	.	.	.	.	.	.	.	.
4f#	feel	.	.	.	.	2BM	B:maj (B D# F#)	.	.	voice
4c#	like	.	.	.	.	.	.	.	.	.
=92	=92	=92	=92	=92	=92	=92	=92	=92	=92	=92
8r	.	1r	.	1r	.	1C#m	C#:min (C# E G#)	newline	173.513	voice
8c#	some-	.	.	.	.	.	.	.	.	.
8e	-bo-	.	.	.	.	.	.	.	.	.
8e	-dy's	.	.	.	.	.	.	.	.	.
4b	wa-	.	.	.	.	.	.	.	.	.
8a	-tching	.	.	.	.	.	.	.	.	.
8a	me!	.	.	.	.	.	.	.	.	.
=93	=93	=93	=93	=93	=93	=93	=93	=93	=93	=93
4.g#	_	2r	.	1r	.	2AM	A:maj (A C# E)	.	.	voice
8r	.	.	.	.	.	.	.	.	.	.
8r	.	6r	.	.	.	2BM	B:maj (B D# F#)	.	.	voice
16g	And	.	.	.	.	.	.	.	.	.
.	.	6ff#	_	.	.	.	.	.	.	.
16f#	I	.	.	.	.	.	.	.	.	.
8f#	have	.	.	.	.	.	.	.	.	.
.	.	6ee	_	.	.	.	.	.	.	.
8f#	no	.	.	.	.	.	.	.	.	.
=94	=94	=94	=94	=94	=94	=94	=94	=94	=94	=94
8f#	pri-	4cc#	_	1r	.	1C#m	C#:min (C# E G#)	.	.	voice
8c#	-va-	.	.	.	.	.	.	.	.	.
4c#	-cy,	4r	.	.	.	.	.	.	.	.
8B	whoa-	2r	.	.	.	.	.	.	.	.
8c#	-oh-	.	.	.	.	.	.	.	.	.
8e	-oh-	.	.	.	.	.	.	.	.	.
8c#	-oh!	.	.	.	.	.	.	.	.	.
=95	=95	=95	=95	=95	=95	=95	=95	=95	=95	=95
8r	.	1r	.	1r	.	2AM	A:maj (A C# E)	.	.	voice
8c#	I	.	.	.	.	.	.	.	.	.
8e	al-	.	.	.	.	.	.	.	.	.
8e	-ways	.	.	.	.	.	.	.	.	.
4f#	feel	.	.	.	.	2BM	B:maj (B D# F#)	.	.	voice
4c#	like	.	.	.	.	.	.	.	.	.
=96	=96	=96	=96	=96	=96	=96	=96	=96	=96	=96
8r	.	1r	.	1r	.	1C#m	C#:min (C# E G#)	newline	181.261	voice
8c#	some-	.	.	.	.	.	.	.	.	.
8e	-bo-	.	.	.	.	.	.	.	.	.
8e	-dy's	.	.	.	.	.	.	.	.	.
4b	wa-	.	.	.	.	.	.	.	.	.
8a	-tching	.	.	.	.	.	.	.	.	.
8a	me!	.	.	.	.	.	.	.	.	.
=97	=97	=97	=97	=97	=97	=97	=97	=97	=97	=97
4.g#	_	1r	.	1r	.	2AM	A:maj (A C# E)	.	.	voice
8r	.	.	.	.	.	.	.	.	.	.
8r	.	.	.	.	.	2BM	B:maj (B D# F#)	.	.	voice
8g#	Who's	.	.	.	.	.	.	.	.	.
8g	pla-	.	.	.	.	.	.	.	.	.
8f#	-ying	.	.	.	.	.	.	.	.	.
=98	=98	=98	=98	=98	=98	=98	=98	=98	=98	=98
8f#	tricks	2r	.	1r	.	1C#m	C#:min (C# E G#)	.	.	voice
8f#	on	.	.	.	.	.	.	.	.	.
4g#	me?	.	.	.	.	.	.	.	.	.
2r	.	8r	.	.	.	.	.	.	.	.
.	.	8e g#	Who's	.	.	.	.	.	.	.
.	.	8d# f#	wa-	.	.	.	.	.	.	.
.	.	8c# e	-tching	.	.	.	.	.	.	.
=99	=99	=99	=99	=99	=99	=99	=99	=99	=99	=99
8r	.	8c# e	me?	1r	.	2AM	A:maj (A C# E)	.	.	voice
8c#	I	8r	.	.	.	.	.	.	.	.
8e	al-	2.r	.	.	.	.	.	.	.	.
8e	-ways	.	.	.	.	.	.	.	.	.
4f#	feel	.	.	.	.	2BM	B:maj (B D# F#)	.	.	voice
4c#	like	.	.	.	.	.	.	.	.	.
=100	=100	=100	=100	=100	=100	=100	=100	=100	=100	=100
*	*	*	*	*	*	*>B_chorus	*>B_chorus	*>B_chorus	*>B_chorus	*>B_chorus
8r	.	1r	.	1r	.	1C#m	C#:min (C# E G#)	newline	188.977	voice
8c#	some-	.	.	.	.	.	.	.	.	.
8e	-bo-	.	.	.	.	.	.	.	.	.
8e	-dy's	.	.	.	.	.	.	.	.	.
4b	wa-	.	.	.	.	.	.	.	.	.
8a	-tching	.	.	.	.	.	.	.	.	.
8a	me!	.	.	.	.	.	.	.	.	.
=101	=101	=101	=101	=101	=101	=101	=101	=101	=101	=101
4.g#	_	2r	.	1r	.	2AM	A:maj (A C# E)	.	.	voice
8r	.	.	.	.	.	.	.	.	.	.
2r	.	4r	.	.	.	2BM	B:maj (B D# F#)	.	.	voice
.	.	8r	.	.	.	.	.	.	.	.
.	.	[8cc#	Ooh	.	.	.	.	.	.	.
=102	=102	=102	=102	=102	=102	=102	=102	=102	=102	=102
2r	.	16cc#]	_	1r	.	1C#m	C#:min (C# E G#)	.	.	voice
.	.	16b	_	.	.	.	.	.	.	.
.	.	8g#	_	.	.	.	.	.	.	.
.	.	8f#	_	.	.	.	.	.	.	.
.	.	[8e	_	.	.	.	.	.	.	.
8r	.	4e]	...	.	.	.	.	.	.	.
8c#	Whoa-	.	.	.	.	.	.	.	.	.
8e	-oh-	4r	.	.	.	.	.	.	.	.
8c#	-oh!	.	.	.	.	.	.	.	.	.
=103	=103	=103	=103	=103	=103	=103	=103	=103	=103	=103
8r	.	1r	.	1r	.	2AM	A:maj (A C# E)	.	.	voice
8c#	I	.	.	.	.	.	.	.	.	.
8e	al-	.	.	.	.	.	.	.	.	.
8e	-ways	.	.	.	.	.	.	.	.	.
4f#	feel	.	.	.	.	2BM	B:maj (B D# F#)	.	.	voice
4c#	like	.	.	.	.	.	.	.	.	.
=104	=104	=104	=104	=104	=104	=104	=104	=104	=104	=104
8r	.	1r	.	1r	.	1C#m	C#:min (C# E G#)	newline	196.704	voice
8c#	some-	.	.	.	.	.	.	.	.	.
8e	-bo-	.	.	.	.	.	.	.	.	.
8e	-dy's	.	.	.	.	.	.	.	.	.
4b	wa-	.	.	.	.	.	.	.	.	.
8a	-tching	.	.	.	.	.	.	.	.	.
8a	me!	.	.	.	.	.	.	.	.	.
=105	=105	=105	=105	=105	=105	=105	=105	=105	=105	=105
4.g#	_	2r	.	1r	.	2AM	A:maj (A C# E)	.	.	voice
8r	.	.	.	.	.	.	.	.	.	.
8r	.	6r	.	.	.	2BM	B:maj (B D# F#)	.	.	voice
8g#	Tell	.	.	.	.	.	.	.	.	.
.	.	6ff#	_	.	.	.	.	.	.	.
8f#	me,	.	.	.	.	.	.	.	.	.
.	.	6ee	_	.	.	.	.	.	.	.
8e	who	.	.	.	.	.	.	.	.	.
=106	=106	=106	=106	=106	=106	=106	=106	=106	=106	=106
8f#	can	4cc#	_	1r	.	1C#m	C#:min (C# E G#)	.	.	voice
8c#	it	.	.	.	.	.	.	.	.	.
4c#	be!	4r	.	.	.	.	.	.	.	.
2r	.	8r	.	.	.	.	.	.	.	.
.	.	8e g#	_	.	.	.	.	.	.	.
.	.	8d# f#	_	.	.	.	.	.	.	.
.	.	8c# e	_	.	.	.	.	.	.	.
=107	=107	=107	=107	=107	=107	=107	=107	=107	=107	=107
8r	.	8c# e	_	1r	.	2AM	A:maj (A C# E)	.	.	voice
8c#	I	8r	.	.	.	.	.	.	.	.
8e	al-	2.r	.	.	.	.	.	.	.	.
8e	-ways	.	.	.	.	.	.	.	.	.
4f#	feel	.	.	.	.	2BM	B:maj (B D# F#)	.	.	voice
4c#	like	.	.	.	.	.	.	.	.	.
=108	=108	=108	=108	=108	=108	=108	=108	=108	=108	=108
8r	.	1r	.	1r	.	1C#m	C#:min (C# E G#)	newline	204.502	voice
8c#	some-	.	.	.	.	.	.	.	.	.
8e	-bo-	.	.	.	.	.	.	.	.	.
8e	-dy's	.	.	.	.	.	.	.	.	.
4b	wa-	.	.	.	.	.	.	.	.	.
8a	-tching	.	.	.	.	.	.	.	.	.
8a	me!	.	.	.	.	.	.	.	.	.
=109	=109	=109	=109	=109	=109	=109	=109	=109	=109	=109
4.g#	_	2r	.	1r	.	2AM	A:maj (A C# E)	.	.	voice
8r	.	.	.	.	.	.	.	.	.	.
2r	.	4r	.	.	.	2BM	B:maj (B D# F#)	.	.	voice
.	.	8r	.	.	.	.	.	.	.	.
.	.	8f#	Ooh	.	.	.	.	.	.	.
=110	=110	=110	=110	=110	=110	=110	=110	=110	=110	=110
2r	.	16e	_	1r	.	1C#m	C#:min (C# E G#)	.	.	voice
.	.	8c#	_	.	.	.	.	.	.	.
.	.	[16c#	_	.	.	.	.	.	.	.
.	.	4c#]	....	.	.	.	.	.	.	.
8B	Whoa-	8r	.	.	.	.	.	.	.	.
8c#	-oh-	8A	Ah!	.	.	.	.	.	.	.
8e	-oh-	8r	.	.	.	.	.	.	.	.
8c#	-oh!	8ee	Ooh!	.	.	.	.	.	.	.
=111	=111	=111	=111	=111	=111	=111	=111	=111	=111	=111
8r	.	1r	.	1r	.	2AM	A:maj (A C# E)	.	.	voice
8c#	I	.	.	.	.	.	.	.	.	.
8e	al-	.	.	.	.	.	.	.	.	.
8e	-ways	.	.	.	.	.	.	.	.	.
4f#	feel	.	.	.	.	2BM	B:maj (B D# F#)	.	.	voice
4c#	like	.	.	.	.	.	.	.	.	.
=112	=112	=112	=112	=112	=112	=112	=112	=112	=112	=112
*	*	*	*	*	*	*>_fadeout	*>_fadeout	*>_fadeout	*>_fadeout	*>_fadeout
8r	.	1r	.	1r	.	1C#m	C#:min (C# E G#)	newline	212.214	voice
8c#	some-	.	.	.	.	.	.	.	.	.
8e	-bo-	.	.	.	.	.	.	.	.	.
8e	-dy's	.	.	.	.	.	.	.	.	.
4b	wa-	.	.	.	.	.	.	.	.	.
8a	-tching	.	.	.	.	.	.	.	.	.
8a	me!	.	.	.	.	.	.	.	.	.
=113	=113	=113	=113	=113	=113	=113	=113	=113	=113	=113
4.g#	_	1r	.	1r	.	2AM	A:maj (A C# E)	.	.	voice
8r	.	.	.	.	.	.	.	.	.	.
8r	.	.	.	.	.	2BM	B:maj (B D# F#)	.	.	voice
8g#	Who's	.	.	.	.	.	.	.	.	.
8g	pla-	.	.	.	.	.	.	.	.	.
8f#	-ying	.	.	.	.	.	.	.	.	.
=114	=114	=114	=114	=114	=114	=114	=114	=114	=114	=114
8f#	tricks	2r	.	1r	.	1C#m	C#:min (C# E G#)	.	.	voice
8f#	on	.	.	.	.	.	.	.	.	.
4g#	me?	.	.	.	.	.	.	.	.	.
2r	.	8r	.	.	.	.	.	.	.	.
.	.	8e g#	Who's	.	.	.	.	.	.	.
.	.	8d# f#	wa-	.	.	.	.	.	.	.
.	.	8c# e	-tching	.	.	.	.	.	.	.
=115	=115	=115	=115	=115	=115	=115	=115	=115	=115	=115
8r	.	8c# e	me?	1r	.	2AM	A:maj (A C# E)	.	.	voice
8c#	I	8r	.	.	.	.	.	.	.	.
8e	al-	2.r	.	.	.	.	.	.	.	.
8e	-ways	.	.	.	.	.	.	.	.	.
4f#	feel	.	.	.	.	2BM	B:maj (B D# F#)	.	.	voice
4c#	like	.	.	.	.	.	.	.	.	.
=116	=116	=116	=116	=116	=116	=116	=116	=116	=116	=116
8r	.	1r	.	1r	.	1C#m	C#:min (C# E G#)	newline	219.961	voice
8c#	some-	.	.	.	.	.	.	.	.	.
8e	-bo-	.	.	.	.	.	.	.	.	.
8e	-dy's	.	.	.	.	.	.	.	.	.
4b	wa-	.	.	.	.	.	.	.	.	.
8a	-tching	.	.	.	.	.	.	.	.	.
8a	me!	.	.	.	.	.	.	.	.	.
=117	=117	=117	=117	=117	=117	=117	=117	=117	=117	=117
4.g#	_	1r	.	1r	.	2AM	A:maj (A C# E)	.	.	voice
8r	.	.	.	.	.	.	.	.	.	.
8r	.	.	.	.	.	2BM	B:maj (B D# F#)	.	.	voice
16g	Can	.	.	.	.	.	.	.	.	.
16g	I	.	.	.	.	.	.	.	.	.
8f#	have	.	.	.	.	.	.	.	.	.
8f#	my	.	.	.	.	.	.	.	.	.
=118	=118	=118	=118	=118	=118	=118	=118	=118	=118	=118
6f#	pri-	2r	.	1r	.	1C#m	C#:min (C# E G#)	.	.	voice
6c#	-va-	.	.	.	.	.	.	.	.	.
[6c#	-cy?	.	.	.	.	.	.	.	.	.
8c#]	_	8r	.	.	.	.	.	.	.	.
[8B	_	8c#	Whoa-	.	.	.	.	.	.	.
4B]	_	8e	-oh-	.	.	.	.	.	.	.
.	.	8c#	-oh!	.	.	.	.	.	.	.
=119	=119	=119	=119	=119	=119	=119	=119	=119	=119	=119
8r	.	1r	.	1r	.	2AM	A:maj (A C# E)	.	.	voice
8c#	I	.	.	.	.	.	.	.	.	.
8e	al-	.	.	.	.	.	.	.	.	.
8e	-ways	.	.	.	.	.	.	.	.	.
4f#	feel	.	.	.	.	2BM	B:maj (B D# F#)	.	.	voice
4c#	like	.	.	.	.	.	.	.	.	.
=120	=120	=120	=120	=120	=120	=120	=120	=120	=120	=120
8r	.	1r	.	1r	.	1C#m	C#:min (C# E G#)	newline	227.687	voice
8c#	some-	.	.	.	.	.	.	.	.	.
8e	-bo-	.	.	.	.	.	.	.	.	.
8e	-dy's	.	.	.	.	.	.	.	.	.
4b	wa-	.	.	.	.	.	.	.	.	.
8a	-tching	.	.	.	.	.	.	.	.	.
8a	me!	.	.	.	.	.	.	.	.	.
=121	=121	=121	=121	=121	=121	=121	=121	=121	=121	=121
4.g#	_	1r	.	1r	.	2AM	A:maj (A C# E)	.	.	voice
8r	.	.	.	.	.	.	.	.	.	.
8r	.	.	.	.	.	2BM	B:maj (B D# F#)	.	.	voice
8g#	Who's	.	.	.	.	.	.	.	.	.
8f#	pla-	.	.	.	.	.	.	.	.	.
8f#	-ying	.	.	.	.	.	.	.	.	.
=122	=122	=122	=122	=122	=122	=122	=122	=122	=122	=122
8f#	tricks	1r	.	1r	.	1C#m	C#:min (C# E G#)	.	.	voice
8c#	on	.	.	.	.	.	.	.	.	.
4c#	me?	.	.	.	.	.	.	.	.	.
2r	.	.	.	.	.	.	.	.	.	.
=123	=123	=123	=123	=123	=123	=123	=123	=123	=123	=123
1r	.	1r	.	1r	.	2AM	A:maj (A C# E)	.	.	voice
.	.	.	.	.	.	2BM	B:maj (B D# F#)	.	.	voice
*-	*-	*-	*-	*-	*-	*	*	*	*	*	*
1r;	r	.	235.45	r
1r;	r	.	241.659	r
*-	*-	*-	*-	*-
!!!BillboardChartDate: 1984/01/28, 1984/03/17
!!!BillboardPeak: 2, 2
!!!BillboardWeeksOnChart: 19, 19
!!!COC: Rockwell
!!!ENC: Nathaniel Condit-Schultz
!!!EST: Awating manual error checking and editing.
!!!OTL: Somebody's Watching Me
!!!RDF**chordsym: original McGill chord annotation + (implied pitch class set, with bass pitch in first position)
!!!RDF**harmony: **recip + pitch class of root + harmonic quality
!!!RDF**leadinstrument: original McGill primary instrumentation annotation
!!!RDF**phrase: newline = linebreak in original McGill transcription
!!!RDF**timestamp: McGill audio timestamp in seconds
!!!RDT: 2017/01/12/
!!!SampleActualRank: 73,  3
!!!SampleID#: 334, 882
!!!SampleTargetRank: 73,  4
